X:1
T:Lanna-Villes Schottis
R:Schottis
S:Efter Vifast Björklund
O:Lansjärv, Norrbotten
Z:ABC-transkribering av Johan Dahlberg
M:2/4
L:1/8
K:Dm
 |:A/2F/2D/2F/2 A/2F/2D/2F/2|Ad cB|AA/2G/2 FG|A2A2|
A/2F/2D/2F/2 A/2F/2D/2F/2|Ad cB|AA/2G/2 FE|D2D2::
DD/2E/2 FG|AB A2|dd/2e/2 fe|d2 Ad/2e/2|f/2f/2e/2e/2 dA/2B/2|
cB AF/2G/2|AG FG|A2 Ad/2e/2|f/2f/2e/2e/2 dA/2B/2|
cB AF/2G/2|AG FE|D2D2:|]

